public/Images/cheveux.svg

<svg width="165" height="94" viewBox="0 0 165 94" fill="none" xmlns="http://www.w3.org/2000/svg">
<path d="M130.816 54.3416C130.816 54.3416 132.988 56.573 137.469 57.3168C141.374 57.9713 141.874 63.706 141.949 65.1638C141.971 65.354 141.971 65.5463 141.949 65.7365C141.717 67.5142 140.634 78.9984 150.632 83.2231C150.812 83.2975 150.984 83.387 151.148 83.4909C152.238 84.2347 157.375 87.1727 158.921 80.8132C159.962 76.6606 161.669 72.7025 163.976 69.091C164.252 68.6559 164.43 68.1661 164.498 67.6555C165.043 63.4531 166.94 44.2483 157.666 35.0029C147.213 24.5898 86.8291 -0.0223389 80.0792 -0.0223389C74.7927 -0.0223389 49.9659 2.87102 7.44278 31.7526C4.97876 33.4335 4.00805 35.9327 3.26138 38.8186C0.819755 48.2648 -3.39894 70.839 5.09821 91.4941C5.41454 92.2801 6.01047 92.9224 6.77217 93.2984C7.53386 93.6743 8.4079 93.7575 9.2273 93.5321C11.4673 92.8627 13.782 90.7801 11.4076 84.562C11.1882 83.9833 11.1265 83.3571 11.2288 82.747C11.3311 82.1369 11.5937 81.5647 11.99 81.0884C13.4833 79.3108 15.4546 76.2091 14.8871 72.9662C14.7537 72.2581 14.8522 71.526 15.1681 70.8778C15.4841 70.2297 16.0007 69.6998 16.6418 69.3662C18.6952 68.3026 21.204 65.5506 22.2642 58.5887C22.3395 58.0575 22.5388 57.5513 22.8461 57.1107C23.1535 56.6702 23.5603 56.3077 24.0339 56.0523C24.8482 55.6184 25.5634 55.0209 26.134 54.2975C26.7047 53.5741 27.1184 52.7407 27.3491 51.8499C27.4925 51.3843 27.733 50.9542 28.0548 50.5877C28.3766 50.2211 28.7725 49.9264 29.2165 49.7228C29.6606 49.5191 30.1428 49.4112 30.6316 49.4061C31.1205 49.4009 31.6048 49.4987 32.0531 49.6929C36.5332 51.5747 44.1716 52.3928 54.2144 44.0624C54.8469 43.5404 55.6456 43.2604 56.4668 43.2727C57.2881 43.2849 58.078 43.5887 58.6944 44.1293C60.9345 46.0408 65.7505 47.7367 75.4498 43.564C75.9932 43.3229 76.5899 43.2255 77.1821 43.2814C81.2963 43.6756 98.6042 44.9772 105.242 39.7781C105.741 39.3774 106.342 39.1233 106.978 39.0445C107.614 38.9657 108.259 39.0652 108.841 39.3318C111.081 40.3657 115.613 41.6301 124.842 41.6971C125.23 41.6867 125.614 41.6241 125.985 41.5111C126.94 41.2434 129.285 41.6376 129.875 51.6491" fill="#754034"/>
</svg>

<svg xmlns="http://www.w3.org/2000/svg" width="165" height="94" fill="none"><path d="M130.816 54.342s2.172 2.23 6.653 2.975c3.905.654 4.405 6.39 4.48 7.847.022.2.022.383 0 .573-.232 1.778-1.315 13.262 8.683 17.487.18.074.352.164.516.268 1.1.744 6.227 3.682 7.773-2.678 1.04-4.153 2.748-8.11 5.055-11.722.276-.435.454-.925.522-1.435.545-4.202 2.442-23.407-6.832-32.653C147.213 24.6 86.83-.022 80.08-.022c-5.287 0-30.113 2.893-72.636 31.775-2.464 1.68-3.435 4.18-4.18 7.066C.82 48.265-3.4 70.84 5.098 91.494a3.45 3.45 0 0 0 1.674 1.804 3.47 3.47 0 0 0 2.455.234c2.24-.67 4.555-2.752 2.18-8.97a3.49 3.49 0 0 1-.179-1.815c.102-.6.365-1.182.76-1.66 1.493-1.778 3.465-4.88 2.897-8.122a3.35 3.35 0 0 1 .281-2.088 3.37 3.37 0 0 1 1.474-1.512c2.053-1.064 4.562-3.816 5.622-10.778.075-.53.275-1.037.582-1.478a3.44 3.44 0 0 1 1.188-1.058 6.67 6.67 0 0 0 2.1-1.755 6.64 6.64 0 0 0 1.215-2.448c.143-.466.384-.896.706-1.262a3.47 3.47 0 0 1 1.162-.865 3.48 3.48 0 0 1 1.415-.317c.49-.005.973.093 1.422.287 4.48 1.882 12.118 2.7 22.16-5.63.633-.522 1.43-.802 2.252-.8s1.61.316 2.228.857c2.24 1.91 7.056 3.607 16.755-.565a3.47 3.47 0 0 1 1.732-.283c4.114.394 21.422 1.696 28.06-3.503a3.45 3.45 0 0 1 1.736-.734c.636-.08 1.28.02 1.863.287 2.24 1.034 6.772 2.298 16 2.365a4.32 4.32 0 0 0 1.143-.186c.955-.268 3.3.127 3.9 10.138" fill="#754034"/></svg>
